X:1
T:Title
%%score { ( 1 3 ) | ( 2 4 ) }
L:1/8
M:4/4
K:D
V:1 treble nm="Grand Piano"
V:3 treble 
V:2 bass 
V:4 bass 
V:1
 z4 z2[Q:1/4=100] [FA]>[FA] | [Fd]>[Fd] [Fd]>[Fd] [Fd]>[DF] [EG]>[FA] | B>B B>B B2 E>F | G6 z2 | %4
 A6 z2 | [Fd]>[Fd] [Fd]>[Fd] [Fd]>[DF] [EG]>[FA] | B>B B>B B2 (3edB | A6 z2 |[M:3/4] [Fd]6 | %9
[M:1/4] c>d |[M:4/4] e6 z2 | [Fd]>[A,FA] [A,DF]>[DGB] [DFA]2 c>d | e6 z2 | %13
 [Fd]>[Fe] [Gd]>[GB] [FA]2 [DF]>[FA] | z z/ D/ D>D d2 (3edB | [FA]4 z4 | c6 z2 |[M:3/4] [Fd]6 |] %18
V:2
 z4 z2 [D,D]>[D,D] | [D,A,]>[D,A,] [D,A,]>[D,A,] [D,A,]>[D,A,] [D,A,]>[D,D] | %2
 [G,DG]>[G,DG] [G,DG]>[G,DG] [G,DG]2 C>D | E6 z2 | F6[K:bass] z2 | %5
 [D,A,]>[D,A,] [D,A,]>[D,A,] [D,A,]>[D,A,] [D,A,]>[D,D] | %6
 [G,DG]>[G,DG] [G,DG]>[G,DG] [G,DG]2 (3:2:2G2 G | F6[K:bass] z2 |[M:3/4] [D,A,]6 | %9
[M:1/4][K:treble] E>F |[M:4/4] G6 z2 | [D,A,]>D, D,>D, D,2[K:treble] E>F | G6 z2 | %13
 [D,A,]>[D,A,] [D,B,]>[D,D] [D,D]2 [D,A,]>[D,D] | %14
 [G,D]>G, G,>G,[K:treble] [G,B,G]2 (3:2:2[G,B,G]2 [G,DG] | [D,D]>D, D,>D, [D,A,D]2[K:treble] F>F | %16
 G6[K:bass] z2 |[M:3/4] [D,A,]6 |] %18
V:3
 x8 | x8 | x8 | z2 C>C C2 c>B | z2 D>D D2 [FA]>[FA] | x8 | x8 | z2 D>D D2 [Ec]>[Ge] |[M:3/4] x6 | %9
[M:1/4] x2 |[M:4/4] z2 C>C C2 (3ABc | x8 | z2 C>C C2 (3ABc | x8 | [GB]4 z4 | z z/ D/ D>D F2 A>d | %16
 z2 A,>C E2 [Ge]>[Ec] |[M:3/4] x6 |] %18
V:4
 x8 | x8 | x8 | z2 A,>A, A,2 A>G | z2[K:bass] D,>D, D,2 [D,D]>[D,D] | x8 | x8 | %7
 z2[K:bass] A,>A, A,2 [A,,A,]>[A,,A,] |[M:3/4] x6 |[M:1/4][K:treble] x2 | %10
[M:4/4] z2 A,>A, A,2 (3:2:2[A,G]2 [A,G] | x6[K:treble] x2 | z2 A,>A, A,2 (3:2:2[A,G]2 [A,G] | x8 | %14
 x4[K:treble] x4 | x6[K:treble] x2 | z2 z z/[K:bass] A,/ A,2 [A,,A,]>[A,,A,] |[M:3/4] x6 |] %18

